X:1
T:Lonely Voices Crying in the City
T:Lonely Voices Crying in the City
T:Billie Hanks, Jr.
T:Billie Hanks, Jr., 1967
T:© 1967 Hope Publishing Company Courtesy of the Cyber Hymnal™
T:© 1967 Hope Publishing Company Courtesy of the Cyber Hymnal™
C:Billie Hanks, Jr.
Z:© 1967 Hope Publishing Company
Z:Courtesy of the Cyber Hymnal™
%%score ( 1 2 ) 3
L:1/8
Q:1/4=115
M:4/4
K:F
V:1 treble 
V:2 treble 
V:3 bass 
V:1
 C | F3 G A3 G | F3 G A3 F | G2 G6- | [B,DG]8 | E3 F G3 F | E3 F G3 E | [A,F-]8 | [G,B,F]8 | %9
w: 1.|Lone- ly voic- es|cry- ing in the|ci- ty,||Lone- ly voic- es|sound- ing like a|child.|Lone-|
w: 2.|Lone- ly fac- es|look- ing for the|sun- rise,||Just to find a-|no- ther bu- sy|day.|Lone-|
w: 3.|Lone- ly eyes, I|see them in the|sub- way,||Bur- dened by the|wor- ries of the|day;|Men|
w: 4.~A-|bun- dant life He|came to tru- ly|give man,||But so few His|gift of grace re-|ceive.|Lone-|
 F3 G A3 G | F3 G A3 F | G2 G6- | [B,DG]8 | E3 F G3 F | E3 F G3 E | F8- | [CF]4 c3 A | A2 G6- | %18
w: ly voic- es come|from bu- sy peo-|ple, Too||dis- turbed to stop|a lit- tle while.|Lone-|* ly voic-|es fill|
w: ly fac- es all|a- round the ci-|ty, Men||a- fraid, but too|a- shamed to pray.|Lone-|* ly fac-|es do|
w: at lei- sure, but|they’re so un- hap-|py, Tired||of fool- ish roles|they try to play.|Lone-|* ly peo-|ple do|
w: ly peo- ple live|in ev- ery ci-|ty, Men||who face a dark|and lone- ly grave.|Lone-|* ly fac-|es do|
 [DG]4 [DF]2 [EG]2 | [CFA-]8 | A4 c3 A | A2 G6- | [DG]4 DFFG | [A,CF]8- | [A,CF]8 |] %25
w: * my dreams,|Lone-|* ly voic-|es haunt|my mem- o- ry. *|||
w: * I see,|Lone-|* ly fac-|es haunt|my mem- o- ry. *|||
w: * I see,|Lone-|* ly peo-|ple haunt|my mem- o- ry. *|||
w: * I see,|Lone-|* ly voic-|es call-|ing out to me. *|||
V:2
 x | A,8 | A,8 | [B,D]8- | x8 | B,8 | B,8 | x8 | x8 | A,8 | A,8 | [B,D]8- | x8 | B,8 | B,8 | %15
 A,4 B,4 | x4 [CF]4 | D8- | x8 | x8 | [CE]8 | D8 | x4 D4 | x8 | x8 |] %25
V:3
 z | F,,4 C,4 | F,4 C,4 | F,,4 (D,4 | G,4 D,4) | C,4 E,4 | G,4 C,4 | (F,,4 C,4 | F,4 D,4) | %9
 F,,4 C,4 | F,4 C,4 | B,,4 (D,4 | G,4 D,4) | C,4 E,4 | G,4 C,4 | (F,,4 G,,4 | [A,,F,]8) | %17
 B,,4 (F,4 | B,4) [C,B,]4 | (F,,4 F,4 | A,,4) E,4 | B,,4 (F,4 | B,4) [C,B,]4 | (F,4 C,4 | F,,8) |] %25

